communes/297.svg

<?xml version="1.0" encoding="UTF-8" standalone="no"?>
<svg
   xmlns:dc="http://purl.org/dc/elements/1.1/"
   xmlns:cc="http://creativecommons.org/ns#"
   xmlns:rdf="http://www.w3.org/1999/02/22-rdf-syntax-ns#"
   xmlns:svg="http://www.w3.org/2000/svg"
   xmlns="http://www.w3.org/2000/svg"
   xmlns:sodipodi="http://sodipodi.sourceforge.net/DTD/sodipodi-0.dtd"
   xmlns:inkscape="http://www.inkscape.org/namespaces/inkscape"
   version="1.0"
   width="234.47992"
   height="274.65668"
   id="svg2403"
   sodipodi:docname="297.svg">
  <metadata
     id="metadata15">
    <rdf:RDF>
      <cc:Work
         rdf:about="">
        <dc:format>image/svg+xml</dc:format>
        <dc:type
           rdf:resource="http://purl.org/dc/dcmitype/StillImage" />
      </cc:Work>
    </rdf:RDF>
  </metadata>
  <sodipodi:namedview
     pagecolor="#ffffff"
     bordercolor="#666666"
     borderopacity="1"
     objecttolerance="10"
     gridtolerance="10"
     guidetolerance="10"
     inkscape:pageopacity="0"
     inkscape:pageshadow="2"
     inkscape:window-width="640"
     inkscape:window-height="480"
     id="namedview13" />
  <defs
     id="defs2406" />
  <path
     d="M 1,1 L 5.2269022,178.54388 C 8.2461112,305.36092 226.23379,305.36092 229.25301,178.54388 L 233.47992,1 L 1,1 z "
     style="fill:#ffffff;fill-opacity:1;fill-rule:evenodd;stroke:#000000;stroke-width:2;stroke-linecap:butt;stroke-miterlimit:4;stroke-dashoffset:0;stroke-opacity:1"
     id="path3282" />
  <path
     d="M 130.61788,126.42768 C 136.2353,132.75197 139.83642,135.18685 143.48541,136.57697 C 143.51475,134.25606 144.39028,128.82503 144.90315,126.54559 C 146.50753,131.04709 150.97871,139.62534 154.05188,142.36879 C 155.53351,139.9184 157.24832,136.48018 158.21708,132.14926 C 158.76787,137.02071 161.33223,144.56379 163.72564,148.26786 C 166.40396,144.50679 168.78186,137.57338 169.43804,131.64853 C 170.57775,135.12467 172.7053,139.39693 174.37863,141.60555 C 176.32473,136.98447 177.84952,133.55504 178.61967,126.78233 C 179.83711,128.28638 181.03381,129.69028 182.1597,130.94397 C 182.4394,124.67385 182.56028,118.51248 182.08888,110.44124 C 160.39992,134.70331 139.9063,112.09691 129.4888,95.157278 C 132.61402,97.531343 135.72124,100.51134 139.45141,102.96024 C 140.20773,100.63073 140.35102,98.280483 140.59447,94.191339 C 142.59589,99.425443 145.52291,106.00143 148.0372,109.10108 C 150.11111,105.94443 152.36812,100.82431 153.38695,97.800703 C 154.52667,101.27684 157.13775,107.9668 158.81107,110.17542 C 161.60338,106.6423 161.91932,103.21288 163.173,97.286363 C 164.02779,99.394843 165.82892,102.37024 167.19658,103.62393 C 168.0807,96.386733 168.20158,88.17032 167.85107,79.49465 C 145.55768,90.096697 135.57441,77.433093 127.07776,65.026663 C 129.10736,67.311405 132.63328,70.516366 136.674,71.50581 C 137.41817,69.195356 138.46633,66.976479 139.24339,65.282605 C 140.38311,68.758745 142.38976,73.393658 145.03017,74.997853 C 145.76743,71.464733 146.68779,69.002394 147.33705,66.339772 C 148.19184,68.448252 151.68536,71.423652 153.05302,72.677342 C 153.93714,65.440142 154.17891,63.267985 153.8284,54.592315 C 136.24952,59.754531 131.25277,50.18804 124.08513,41.255516 C 127.1193,43.515176 129.48733,45.494614 132.69531,46.127464 C 133.29337,44.686951 133.64728,42.851504 134.67191,41.369969 C 135.22515,42.734622 138.5742,45.748329 139.45938,46.559743 C 140.0316,41.875676 140.7925,37.931223 140.56564,32.316148 C 124.40186,32.34398 122.51136,22.865293 118.57693,11.549537 C 113.61834,25.205755 105.92536,33.538394 96.325301,32.678803 C 96.098441,38.293878 96.141081,40.190337 96.713301,44.874404 C 97.989681,44.219468 100.49958,41.760488 102.38255,40.154066 C 102.35482,42.823295 101.52808,45.02845 102.94412,47.31516 C 107.48455,45.90595 110.75789,42.851647 112.82208,40.711532 C 108.19374,48.524329 101.04251,59.996302 82.85921,54.592315 C 82.508704,63.267985 82.387819,65.077487 83.271938,72.314687 C 85.244022,71.302767 88.374886,68.810907 89.229673,66.702427 C 90.120704,70.453015 89.590447,72.552699 91.778325,76.085819 C 93.451651,73.877199 95.941841,69.725826 98.048651,66.249686 C 98.221281,69.152411 98.544131,71.613059 98.925651,73.681742 C 103.1821,71.424573 106.3279,68.82485 108.25937,66.679351 C 100.4578,76.803506 87.745146,91.305548 68.23211,79.49465 C 67.881604,88.17032 68.002489,96.386733 68.886608,103.62393 C 70.254267,102.37024 72.055394,99.394843 72.910181,97.286363 C 74.163868,103.21288 74.721577,105.91699 77.51388,109.45011 C 79.187208,107.24149 81.556517,101.27684 82.696232,97.800703 C 83.715063,100.82431 85.004995,105.46089 87.078903,108.61754 C 89.955847,106.12232 95.179681,100.27164 97.181101,95.037535 C 97.424551,99.126683 97.446961,101.96047 98.203281,104.28998 C 101.32903,102.68728 104.82247,100.08561 106.64151,98.239843 C 97.577301,110.63059 75.293975,132.64825 52.758814,111.40832 C 51.562112,119.84222 51.562112,125.8827 52.929771,133.1199 C 54.29743,131.86621 55.494132,130.09966 56.348919,127.99118 C 57.602606,133.9177 59.369166,139.1604 62.161469,142.69352 C 63.472142,140.24313 64.269944,136.93795 65.409659,133.46181 C 66.549375,138.41958 68.201963,142.69351 70.880296,146.45458 C 73.2737,142.75051 75.83806,139.5593 77.718591,135.17139 C 78.68735,139.50231 79.314193,141.61079 80.795824,144.06118 C 83.868992,141.31773 88.702831,134.55275 91.274297,130.29302 C 91.787168,132.57246 92.420921,136.31111 92.933801,137.90671 C 98.040631,134.685 101.59766,132.7067 107.09179,127.3672 C 93.139531,146.04959 65.143794,169.43196 42.159456,140.12916 C 41.304669,149.24689 40.62084,156.99695 41.133712,165.43085 C 42.501371,163.49333 44.039987,162.23965 45.236689,159.6183 C 45.635589,165.71578 46.547362,171.98422 48.997751,177.39787 C 50.821296,174.43461 52.644842,171.47134 54.468387,168.50808 C 55.608103,173.46585 57.260691,177.05595 59.939024,180.81702 C 62.674342,177.96773 65.067745,173.23791 66.093489,168.16617 C 67.233205,173.69379 68.543878,178.36663 70.538381,182.18468 C 73.611549,179.44123 76.343827,174.8193 77.718591,169.87574 C 79.257207,172.66805 79.941037,174.94748 80.453909,178.93649 C 84.4999,175.57432 88.545892,171.35737 91.395181,166.11468 C 91.509153,169.19191 91.623124,172.26915 91.737096,175.34638 C 101.80027,166.44659 108.96123,153.24866 117.87719,141.00764 C 123.29084,151.09412 135.21155,170.55957 143.53148,176.37212 C 143.64545,173.29489 144.27229,167.65329 144.38626,164.57606 C 147.23555,169.81875 149.91389,176.08719 153.95988,179.44936 C 154.47275,175.46035 157.03711,172.66805 158.57572,169.87574 C 159.95049,174.8193 160.80224,178.7574 163.8754,181.50085 C 165.86991,177.6828 166.66771,176.08719 167.80743,170.55957 C 168.83317,175.63131 171.9104,178.65156 174.64573,181.50085 C 177.32406,177.73978 178.46378,173.12394 179.60349,168.16617 C 181.42704,171.12943 183.93441,174.60557 185.75796,177.56883 C 188.20835,172.15518 188.7782,166.57057 189.86093,160.13117 C 191.05763,162.75252 191.91242,165.2029 193.28008,167.14042 C 194.64774,159.39035 193.45104,152.15317 192.59625,143.03544 C 166.85285,171.296 145.20651,143.07846 130.61788,126.42768 z "
     style="fill:#25502f;fill-opacity:1;fill-rule:evenodd;stroke:#000000;stroke-width:1px;stroke-linecap:butt;stroke-linejoin:miter;stroke-opacity:1"
     id="path2417" />
  <path
     d="M 107.64828,207.38622 L 109.91724,154.30647 L 125.76976,155.51532 L 127.93858,208.27034 L 107.64828,207.38622 z "
     style="fill:#bf3323;fill-opacity:1;fill-rule:evenodd;stroke:#000000;stroke-width:1px;stroke-linecap:butt;stroke-linejoin:miter;stroke-opacity:1"
     id="path6358" />
  <path
     d="M 8.8336512,203.1834 C 35.409015,297.13324 199.07078,297.13323 225.64615,203.1834 L 8.8336512,203.1834 z "
     style="fill:#25502f;fill-opacity:1;fill-rule:evenodd;stroke:#000000;stroke-width:1px;stroke-linecap:butt;stroke-linejoin:miter;stroke-opacity:1"
     id="path6360" />
  <path
     d="M 116.87246,180.34049 C 114.01152,177.23777 111.15057,170.87115 109.86112,166.55958 C 108.89404,168.01021 107.68519,169.46083 106.47634,170.30702 C 105.46897,165.31044 104.82425,159.70943 107.32254,154.83373 C 105.9928,156.52612 104.54218,157.25143 102.97067,157.73497 C 103.5751,144.4779 110.82821,133.51765 116.6307,128.11811 C 123.56144,135.08916 132.42635,149.55508 130.65337,158.94382 C 129.44452,158.90353 128.35655,158.37969 127.02682,157.00966 C 127.06711,162.20772 127.10741,166.92224 126.42239,171.63676 C 125.09265,170.91145 123.40026,169.58171 122.1914,167.64755 C 120.66019,173.00679 119.12898,176.67364 116.87246,180.34049 z "
     style="opacity:1;color:#000000;fill:#25502f;fill-opacity:1;fill-rule:evenodd;stroke:#000000;stroke-width:1px;stroke-linecap:butt;stroke-linejoin:miter;marker:none;marker-start:none;marker-mid:none;marker-end:none;stroke-miterlimit:4;stroke-dasharray:none;stroke-dashoffset:0;stroke-opacity:1;visibility:visible;display:inline;overflow:visible;enable-background:accumulate"
     id="path3441" />
  <path
     d="M 117.47689,146.9762 C 114.61595,143.87348 111.755,137.26509 111.19086,132.71175 C 110.22378,134.16238 109.2567,137.18451 108.04785,138.0307 C 107.28225,134.24297 106.51665,130.93878 107.44343,125.70042 C 106.11369,127.39281 105.50927,129.20609 103.93776,129.68963 C 103.33333,115.34459 108.89405,106.68115 116.99336,96.808873 C 124.64941,103.29638 131.33839,112.92689 131.01603,126.90927 C 129.56541,125.53924 127.9939,124.41097 126.66417,123.04094 C 126.70446,128.239 126.3821,134.04149 125.69708,138.75601 C 124.36734,138.0307 123.64203,137.30539 123.0376,136.33831 C 121.38551,139.88427 119.73341,143.30935 117.47689,146.9762 z "
     style="opacity:1;color:#000000;fill:#25502f;fill-opacity:1;fill-rule:evenodd;stroke:#000000;stroke-width:1px;stroke-linecap:butt;stroke-linejoin:miter;marker:none;marker-start:none;marker-mid:none;marker-end:none;stroke-miterlimit:4;stroke-dasharray:none;stroke-dashoffset:0;stroke-opacity:1;visibility:visible;display:inline;overflow:visible;enable-background:accumulate"
     id="path3443" />
  <path
     d="M 117.11423,114.82076 C 111.82392,109.03461 110.14576,104.07128 112.27883,93.30321 C 111.19086,96.083566 109.74025,100.6772 108.16874,101.16074 C 105.02572,87.057474 110.1029,81.899703 118.20221,72.027423 C 125.85826,78.514933 132.78901,90.079605 125.81797,102.73225 C 124.36735,101.36222 123.52115,95.277658 123.1585,93.544973 C 125.46006,105.53413 122.44976,110.02821 117.11423,114.82076 z "
     style="opacity:1;color:#000000;fill:#25502f;fill-opacity:1;fill-rule:evenodd;stroke:#000000;stroke-width:1px;stroke-linecap:butt;stroke-linejoin:miter;marker:none;marker-start:none;marker-mid:none;marker-end:none;stroke-miterlimit:4;stroke-dasharray:none;stroke-dashoffset:0;stroke-opacity:1;visibility:visible;display:inline;overflow:visible;enable-background:accumulate"
     id="path6352" />
  <path
     d="M 116.80987,81.335584 C 112.63766,76.383032 111.31419,72.134758 112.99642,62.918017 C 112.1384,65.297813 109.66464,69.954966 108.42525,70.368844 C 108.4851,59.143597 110.55507,52.673848 116.94259,44.223845 C 122.98056,49.776714 127.72119,61.851222 123.5532,70.505099 C 122.40916,69.332446 121.86271,64.608011 121.5767,63.12495 C 123.39183,73.386858 121.01774,77.233486 116.80987,81.335584 z "
     style="opacity:1;color:#000000;fill:#25502f;fill-opacity:1;fill-rule:evenodd;stroke:#000000;stroke-width:1px;stroke-linecap:butt;stroke-linejoin:miter;marker:none;marker-start:none;marker-mid:none;marker-end:none;stroke-miterlimit:4;stroke-dasharray:none;stroke-dashoffset:0;stroke-opacity:1;visibility:visible;display:inline;overflow:visible;enable-background:accumulate"
     id="path6354" />
  <path
     d="M 117.05164,49.784567 C 112.41514,42.418368 109.6433,34.668623 118.03056,22.222753 C 128.369,33.955672 123.24055,45.534903 117.05164,49.784567 z "
     style="opacity:1;color:#000000;fill:#25502f;fill-opacity:1;fill-rule:evenodd;stroke:#000000;stroke-width:1px;stroke-linecap:butt;stroke-linejoin:miter;marker:none;marker-start:none;marker-mid:none;marker-end:none;stroke-miterlimit:4;stroke-dasharray:none;stroke-dashoffset:0;stroke-opacity:1;visibility:visible;display:inline;overflow:visible;enable-background:accumulate"
     id="path6356" />
</svg>

<?xml version="1.0" encoding="UTF-8"?>
<svg version="1.0" viewBox="0 0 234.48 274.66" xmlns="http://www.w3.org/2000/svg" xmlns:cc="http://creativecommons.org/ns#" xmlns:dc="http://purl.org/dc/elements/1.1/" xmlns:rdf="http://www.w3.org/1999/02/22-rdf-syntax-ns#">
<metadata>
<rdf:RDF>
<cc:Work rdf:about="">
<dc:format>image/svg+xml</dc:format>
<dc:type rdf:resource="http://purl.org/dc/dcmitype/StillImage"/>
</cc:Work>
</rdf:RDF>
</metadata>
<path d="m1 1 4.2269 177.54c3.0192 126.82 221.01 126.82 224.03 0l4.2269-177.54h-232.48z" fill="#fff" fill-rule="evenodd" stroke="#000" stroke-width="2"/>
<path d="m130.62 126.43c5.6174 6.3243 9.2185 8.7592 12.868 10.149 0.02934-2.3209 0.90487-7.7519 1.4177-10.031 1.6044 4.5015 6.0756 13.08 9.1487 15.823 1.4816-2.4504 3.1964-5.8886 4.1652-10.22 0.55079 4.8714 3.1152 12.415 5.5086 16.119 2.6783-3.7611 5.0562-10.694 5.7124-16.619 1.1397 3.4761 3.2673 7.7484 4.9406 9.957 1.9461-4.6211 3.4709-8.0505 4.241-14.823 1.2174 1.504 2.4141 2.908 3.54 4.1616 0.2797-6.2701 0.40058-12.431-0.07082-20.503-21.689 24.262-42.183 1.6557-52.6-15.284 3.1252 2.3741 6.2324 5.3541 9.9626 7.803 0.75632-2.3295 0.89961-4.6798 1.1431-8.7689 2.0014 5.2341 4.9284 11.81 7.4427 14.91 2.0739-3.1566 4.3309-8.2768 5.3498-11.3 1.1397 3.4761 3.7508 10.166 5.4241 12.375 2.7923-3.5331 3.1082-6.9625 4.3619-12.889 0.85479 2.1085 2.6559 5.0839 4.0236 6.3376 0.88412-7.2372 1.005-15.454 0.65449-24.129-22.293 10.602-32.277-2.0616-40.773-14.468 2.0296 2.2847 5.5555 5.4897 9.5962 6.4791 0.74417-2.3105 1.7923-4.5293 2.5694-6.2232 1.1397 3.4761 3.1464 8.1111 5.7868 9.7152 0.73726-3.5331 1.6576-5.9955 2.3069-8.6581 0.85479 2.1085 4.3483 5.0839 5.716 6.3376 0.88412-7.2372 1.1259-9.4094 0.77538-18.085-17.579 5.1622-22.576-4.4043-29.743-13.337 3.0342 2.2597 5.4022 4.2391 8.6102 4.8719 0.59806-1.4405 0.95197-3.276 1.9766-4.7575 0.55324 1.3647 3.9023 4.3784 4.7875 5.1898 0.57222-4.6841 1.3331-8.6285 1.1063-14.244-16.164 0.027832-18.054-9.4509-21.989-20.767-4.9586 13.656-12.652 21.989-22.252 21.129-0.22686 5.6151-0.18422 7.5115 0.388 12.196 1.2764-0.65494 3.7863-3.1139 5.6692-4.7203-0.02773 2.6692-0.85447 4.8744 0.56157 7.1611 4.5404-1.4092 7.8138-4.4635 9.878-6.6036-4.6283 7.8128-11.78 19.285-29.963 13.881-0.35051 8.6757-0.47139 10.485 0.41273 17.722 1.9721-1.0119 5.1029-3.5038 5.9577-5.6123 0.89103 3.7506 0.36077 5.8503 2.5487 9.3834 1.6733-2.2086 4.1635-6.36 6.2703-9.8361 0.17263 2.9027 0.49548 5.3634 0.877 7.4321 4.2564-2.2572 7.4022-4.8569 9.3337-7.0024-7.8016 10.124-20.514 24.626-40.027 12.815-0.35051 8.6757-0.22962 16.892 0.6545 24.129 1.3677-1.2537 3.1688-4.2291 4.0236-6.3376 1.2537 5.9265 1.8114 8.6306 4.6037 12.164 1.6733-2.2086 4.0426-8.1733 5.1824-11.649 1.0188 3.0236 2.3088 7.6602 4.3827 10.817 2.8769-2.4952 8.1008-8.3459 10.102-13.58 0.24345 4.0891 0.26586 6.9229 1.0222 9.2524 3.1257-1.6027 6.6192-4.2044 8.4382-6.0501-9.0642 12.391-31.348 34.408-53.883 13.168-1.1967 8.4339-1.1967 14.474 0.17096 21.712 1.3677-1.2537 2.5644-3.0202 3.4191-5.1287 1.2537 5.9265 3.0202 11.169 5.8126 14.702 1.3107-2.4504 2.1085-5.7556 3.2482-9.2317 1.1397 4.9578 2.7923 9.2317 5.4706 12.993 2.3934-3.7041 4.9578-6.8953 6.8383-11.283 0.96876 4.3309 1.5956 6.4394 3.0772 8.8898 3.0732-2.7434 7.907-9.5084 10.478-13.768 0.51287 2.2794 1.1466 6.0181 1.6595 7.6137 5.1068-3.2217 8.6639-5.2 14.158-10.54-13.952 18.682-41.948 42.065-64.932 12.762-0.85479 9.1177-1.5386 16.868-1.0257 25.302 1.3677-1.9375 2.9063-3.1912 4.103-5.8126 0.3989 6.0975 1.3107 12.366 3.7611 17.78 1.8235-2.9633 3.6471-5.9265 5.4706-8.8898 1.1397 4.9578 2.7923 8.5479 5.4706 12.309 2.7353-2.8493 5.1287-7.5791 6.1545-12.651 1.1397 5.5276 2.4504 10.2 4.4449 14.019 3.0732-2.7434 5.8054-7.3654 7.1802-12.309 1.5386 2.7923 2.2224 5.0717 2.7353 9.0608 4.046-3.3622 8.092-7.5791 10.941-12.822 0.11397 3.0772 0.22794 6.1545 0.34192 9.2317 10.063-8.8998 17.224-22.098 26.14-34.339 5.4136 10.086 17.334 29.552 25.654 35.364 0.11397-3.0772 0.74081-8.7188 0.85478-11.796 2.8493 5.2427 5.5276 11.511 9.5736 14.873 0.51287-3.989 3.0772-6.7813 4.6158-9.5736 1.3748 4.9436 2.2265 8.8817 5.2997 11.625 1.9945-3.818 2.7923-5.4137 3.932-10.941 1.0257 5.0717 4.103 8.092 6.8383 10.941 2.6783-3.7611 3.818-8.3769 4.9578-13.335 1.8236 2.9633 4.3309 6.4394 6.1545 9.4027 2.4504-5.4136 3.0202-10.998 4.103-17.438 1.1967 2.6214 2.0515 5.0717 3.4192 7.0092 1.3677-7.7501 0.17096-14.987-0.68383-24.105-25.743 28.261-47.39 0.04302-61.978-16.608z" fill="#25502f" fill-rule="evenodd" stroke="#000" stroke-width="1px"/>
<path d="m107.65 207.39 2.269-53.08 15.853 1.2088 2.1688 52.755-20.29-0.88412z" fill="#bf3323" fill-rule="evenodd" stroke="#000" stroke-width="1px"/>
<path d="m8.8337 203.18c26.575 93.95 190.24 93.95 216.81 0h-216.81z" fill="#25502f" fill-rule="evenodd" stroke="#000" stroke-width="1px"/>
<path d="m116.87 180.34c-2.8609-3.1027-5.7219-9.4693-7.0113-13.781-0.96708 1.4506-2.1759 2.9012-3.3848 3.7474-1.0074-4.9966-1.6521-10.598 0.8462-15.473-1.3297 1.6924-2.7804 2.4177-4.3519 2.9012 0.60443-13.257 7.8575-24.217 13.66-29.617 6.9307 6.971 15.796 21.437 14.023 30.826-1.2088-0.04029-2.2968-0.56413-3.6266-1.9342 0.04029 5.1981 0.08059 9.9126-0.60443 14.627-1.3297-0.72531-3.0221-2.055-4.231-3.9892-1.5312 5.3592-3.0624 9.0261-5.3189 12.693z" color="#000000" fill="#25502f" fill-rule="evenodd" stroke="#000" stroke-width="1px"/>
<path d="m117.48 146.98c-2.8609-3.1027-5.7219-9.7111-6.286-14.264-0.96708 1.4506-1.9342 4.4728-3.143 5.319-0.7656-3.7877-1.5312-7.0919-0.60442-12.33-1.3297 1.6924-1.9342 3.5057-3.5057 3.9892-0.60443-14.345 4.9563-23.008 13.056-32.881 7.656 6.4875 14.345 16.118 14.023 30.1-1.4506-1.37-3.0221-2.4983-4.3519-3.8683 0.04029 5.1981-0.28207 11.001-0.96709 15.715-1.3297-0.72531-2.055-1.4506-2.6595-2.4177-1.6521 3.546-3.3042 6.971-5.5607 10.638z" color="#000000" fill="#25502f" fill-rule="evenodd" stroke="#000" stroke-width="1px"/>
<path d="m117.11 114.82c-5.2903-5.7862-6.9685-10.749-4.8354-21.518-1.088 2.7804-2.5386 7.374-4.1101 7.8575-3.143-14.103 1.9342-19.261 10.033-29.133 7.656 6.4875 14.587 18.052 7.6158 30.705-1.4506-1.37-2.2968-7.4546-2.6595-9.1873 2.3016 11.989-0.70874 16.483-6.0443 21.276z" color="#000000" fill="#25502f" fill-rule="evenodd" stroke="#000" stroke-width="1px"/>
<path d="m116.81 81.336c-4.1722-4.9526-5.4957-9.2008-3.8134-18.418-0.85802 2.3798-3.3318 7.0369-4.5712 7.4508 0.05985-11.225 2.1298-17.695 8.5173-26.145 6.038 5.5529 10.779 17.627 6.6106 26.281-1.144-1.1727-1.6905-5.8971-1.9765-7.3801 1.8151 10.262-0.55896 14.109-4.7668 18.211z" color="#000000" fill="#25502f" fill-rule="evenodd" stroke="#000" stroke-width="1px"/>
<path d="m117.05 49.785c-4.6365-7.3662-7.4083-15.116 0.97892-27.562 10.338 11.733 5.21 23.312-0.97892 27.562z" color="#000000" fill="#25502f" fill-rule="evenodd" stroke="#000" stroke-width="1px"/>
</svg>
